X:167
%%etbk:tnset id:55,pos:3,rep:3x,ant:
%%etbk:tnset id:65,pos:3,rep:3x,ant:
%%etbk:tnset id:263,pos:9,rep:4x-Stop,ant:
%%etbk:wsite http://www.thesession.org/tunes/display/113
%%etbk:video src:ytube,cde:7M5EdNPpXI4,desc:second tune
%%etbk:pldat 2016-06-23T19:18,2016-06-22T16:08,2016-06-20T18:28,2016-06-20T18:01,2016-06-18T15:49,2016-05-05T14:30,2016-05-03T17:19,2016-03-11T17:09,2016-03-10T18:29,2016-03-09T16:09,2016-03-08T16:33,2016-03-07T18:42,2016-03-05T15:32,2016-02-23T17:07,2016-02-08T18:17,2015-10-29T18:21,2015-10-27T15:29,2015-10-24T13:46,2015-10-20T16:57,2015-10-05T19:28,2015-06-26T17:21,2015-06-22T18:38,2015-05-28T18:12,2015-04-23T18:14,2015-03-13T19:03,2015-03-12T18:55,2015-03-10T17:02,2015-03-06T15:47,2015-02-16T19:19,2015-02-16T19:14,2015-02-03T16:28,2015-01-27T16:39,2014-11-05T18:25,2014-11-02T14:42,2014-10-28T16:47,2014-10-13T18:30,2014-08-21T19:04,2014-08-20T19:21,2014-08-20T18:52,2014-08-14T19:36,2014-08-13T19:59,2014-08-12T19:26,2014-08-11T19:48,2014-08-10T11:43,2014-06-25T15:49,2014-06-23T18:34,2014-06-13T15:43,2014-06-10T18:12,2014-06-03T16:01,2014-03-05T18:14,2014-03-01T17:29,2014-02-27T18:42,2014-02-20T18:41,2013-10-30T16:42,2013-10-29T16:16,2013-10-27T14:21,2013-10-23T19:09,2013-10-18T15:50,2013-10-13T14:56,2013-10-09T15:23,2013-10-05T15:04,2013-09-17T09:57
T: Toss The Feathers 1
Z: Piano Box Version by Martin Fleischmann
H: Created 2013-02-19 /  Last Modified 2013-02-19
M: 4/4
L: 1/8
R: reel
K: Edor
|: "em"!1!E!3!B!2!B!3!B !5!d!3!B!2!B!3!B | !1!E2!5!BA "D"!2!F3A | "em"!5!B!1!E !3!(3E!2!E!1!E !3!BA!3!B!1!d |1 "D"!2!e!4!gfe !1!d!2!B!1!A!2!F:|2 "D"!2!e!4!gfe !1!d!2!B!1!A2||
"D"!2!B!1!d!2!ed "em"!2!e3e | !3!fede !3!f!1!e!2!e!1!e | !2!f!1!e!5!be feb!1!e | "D"!3!fede "em"!3!f!2!ee{g}e |
"em"!1!B!2!ee!1!d !2!e3e | !3!fede "D"!3!f!4!a -aa | !5!b!3!f!2!f!1!f !4!a!3!f!2!f!3!f | !3!f!4!gfe !1!d!2!B!1!A!2!F ||


